src/assets/img/icons/duotone-icons/Shopping/Pound.svg

<?xml version="1.0" encoding="UTF-8"?>
<svg width="24px" height="24px" viewBox="0 0 24 24" version="1.1" xmlns="http://www.w3.org/2000/svg" xmlns:xlink="http://www.w3.org/1999/xlink">
    <!-- Generator: Sketch 52.2 (67145) - http://www.bohemiancoding.com/sketch -->
    <title>Stockholm-icons / Shopping / Pound</title>
    <desc>Created with Sketch.</desc>
    <g id="Stockholm-icons-/-Shopping-/-Pound" stroke="none" stroke-width="1" fill="none" fill-rule="evenodd">
        <rect id="bound" x="0" y="0" width="24" height="24"></rect>
        <path d="M7.825,10.225 C7.2,9.475 6.85,8.4 6.85,7.375 C6.85,4.55 9.15,2.05 12.35,2.05 C15.45,2.05 17.8,4.45 17.875,7.425 L15.075,7.425 C15.075,5.85 13.975,4.6 12.35,4.6 C10.75,4.6 9.6,5.775 9.6,7.375 C9.6,8.26626781 10.0162926,9.06146809 10.6676674,9.58392078 C10.7130614,9.62033024 10.7238389,12.2340233 10.7,17.425 L17.5444449,17.425 C17.8205873,17.425 18.0444449,17.6488576 18.0444449,17.925 C18.0444449,17.9869142 18.0329457,18.0482899 18.0105321,18.1060047 L17.3988817,19.6810047 C17.3242018,19.8733052 17.1390868,20 16.9327944,20 L6.3,20 C6.02385763,20 5.8,19.7761424 5.8,19.5 L5.8,17.925 C5.8,17.6488576 6.02385763,17.425 6.3,17.425 L7.925,17.425 L7.925,12.475 L7.825,10.225 Z" id="£" fill="#335EEA"></path>
        <path d="M4.3618034,11.2763932 L4.8618034,10.2763932 C4.94649941,10.1070012 5.11963097,10 5.30901699,10 L15.190983,10 C15.4671254,10 15.690983,10.2238576 15.690983,10.5 C15.690983,10.5776225 15.6729105,10.6541791 15.6381966,10.7236068 L15.1381966,11.7236068 C15.0535006,11.8929988 14.880369,12 14.690983,12 L4.80901699,12 C4.53287462,12 4.30901699,11.7761424 4.30901699,11.5 C4.30901699,11.4223775 4.32708954,11.3458209 4.3618034,11.2763932 Z" id="Path" fill="#335EEA" opacity="0.3"></path>
    </g>
</svg>

<svg width="24" height="24" viewBox="0 0 24 24" xmlns="http://www.w3.org/2000/svg"><g fill="none" fill-rule="evenodd"><path d="M0 0h24v24H0z"/><path d="M7.825 10.225C7.2 9.475 6.85 8.4 6.85 7.375c0-2.825 2.3-5.325 5.5-5.325 3.1 0 5.45 2.4 5.525 5.375h-2.8c0-1.575-1.1-2.825-2.725-2.825-1.6 0-2.75 1.175-2.75 2.775 0 .891.416 1.686 1.068 2.209.045.036.056 2.65.032 7.841h6.844a.5.5 0 01.467.681l-.612 1.575a.5.5 0 01-.466.319H6.3a.5.5 0 01-.5-.5v-1.575a.5.5 0 01.5-.5h1.625v-4.95l-.1-2.25z" fill="#335EEA"/><path d="M4.362 11.276l.5-1A.5.5 0 015.309 10h9.882a.5.5 0 01.447.724l-.5 1a.5.5 0 01-.447.276H4.809a.5.5 0 01-.447-.724z" fill="#335EEA" opacity=".3"/></g></svg>
